X:1056
T:Lovely Lietrim
C:Joe Buchanan's Scottish Tome - Page 636.3
I:636 3
Z:Carl Allison
R:Waltz
L:1/4
M:3/4
K:Bb
"Bb"G3 | "Bb7"B,2 F | "Eb"G2 c | B2 G | "Bb"F D2 | "F7"C2 D | "Bb"B,3- | B,3 |
"Bb"B2 A | B2 c | B2 A | "Gm"G2 F | "G7"G2 c | "C7"B A G | "F7"F3- | F2 F |
"Bb"B2A | B2 c | B2 A | "Gm"G2 F | "G7"G2 c | "C7"B A G | "F"F3- | F2 F |
"Bb"F3 | "Bb7"B,2 F | "Eb"G2 c | B,2 F | "Bb"F D2 | C2 "F7"D | "Bb"B,"Ebm" | "Bb"B, :|

